X:1049
T:A Rondo.
M:6/8
L:1/8
Q:3/8=104
I: :: :: DC :: DC
P:ABACA
Z:Jack Campin * www.campin.me.uk * 2009
K:D
P:A
z   |A>BA d2f|e2e  e2f   |def B2e|(d3 c2)
A   |A>BA d2f|e2e  e2b   |afd e2f|(d3 d2):|
P:B
z   |ABc  A2A|B2B  A2A   |Bcd A2A| B3 A2 :|
P:C
f/g/|a2a  f2d|e>de d2f/g/|a2a f2d|(f3 e2):|
% as written
%P:A
%     A>BA d2f|e2e  e2f   |def B2e|(d3 c2)A |
%     A>BA d2f|e2e  e2b   |afd e2f|(d3 d2)z:|
%P:B
%     ABc  A2A|B2B  A2A   |Bcd A2A| B3 B2 z:|
%P:C
%f/g/|a2a  f2d|e>de d2f/g/|a2a f2d|(f3 e2)z:|


